svgs/caixa.svg

<svg xmlns="http://www.w3.org/2000/svg" viewBox="0 0 192 192"><path d="M63.938 160.024c-2.063-2.062.795-21.581 6.776-46.269 2.062-8.51 3.942-16.528 4.179-17.818.424-2.31.312-2.361-7.614-3.486-13.515-1.917-38.905-7.19-44.245-9.188-8.528-3.191-9.002-6.111-1.306-8.049 6.75-1.7 24.858-3.76 38.485-4.38 7.26-.329 13.398-.921 13.642-1.315.243-.393-1.039-3.03-2.849-5.859-4.678-7.313-6.722-12.194-6.745-16.105-.017-2.851.337-3.485 2.207-3.955 4.017-1.008 15.585 4.006 28.856 12.507l6.963 4.459 11.697-7.618c22.053-14.365 36.343-21.566 42.797-21.566h3.272l-.483 3.597c-.265 1.978-2.028 6.142-3.918 9.253-3.648 6.005-15.847 21.831-21.02 27.269l-3.098 3.256 8.795 11.762c18.791 25.135 33.944 50.037 35.503 58.346.769 4.098-1.14 5.978-4.957 4.884-7.058-2.024-14.371-6.814-31.997-20.955-14.522-11.651-24.954-19.637-33.186-25.403l-5.384-3.772-11.103 22.542c-15.373 31.212-21.995 41.136-25.267 37.863ZM40.075 154.8c-10.823-4.714-12.085-24.44-1.958-30.614 8.575-5.229 18.832 2.238 19.054 13.872.164 8.565-3.268 14.662-9.6 17.054-3.222 1.217-4.065 1.182-7.496-.312Zm8.693-43.921c-3.093-1.225-5.462-4.328-5.462-7.153 0-5.272 6.232-8.618 12.317-6.613 8.843 2.914 7.127 12.723-2.436 13.923-1.68.211-3.669.14-4.419-.157Z"/></svg>

<svg
    xmlns="http://www.w3.org/2000/svg"
    viewBox="0 0 192 192"
    id="vector">
    <path
        id="path"
        d="M 63.938 160.024 C 61.875 157.962 64.733 138.443 70.714 113.755 C 72.776 105.245 74.656 97.227 74.893 95.937 C 75.317 93.627 75.205 93.576 67.279 92.451 C 53.764 90.534 28.374 85.261 23.034 83.263 C 14.506 80.072 14.032 77.152 21.728 75.214 C 28.478 73.514 46.586 71.454 60.213 70.834 C 67.473 70.505 73.611 69.913 73.855 69.519 C 74.098 69.126 72.816 66.489 71.006 63.66 C 66.328 56.347 64.284 51.466 64.261 47.555 C 64.244 44.704 64.598 44.07 66.468 43.6 C 70.485 42.592 82.053 47.606 95.324 56.107 L 102.287 60.566 L 113.984 52.948 C 136.037 38.583 150.327 31.382 156.781 31.382 L 160.053 31.382 L 159.57 34.979 C 159.305 36.957 157.542 41.121 155.652 44.232 C 152.004 50.237 139.805 66.063 134.632 71.501 L 131.534 74.757 L 140.329 86.519 C 159.12 111.654 174.273 136.556 175.832 144.865 C 176.601 148.963 174.692 150.843 170.875 149.749 C 163.817 147.725 156.504 142.935 138.878 128.794 C 124.356 117.143 113.924 109.157 105.692 103.391 L 100.308 99.619 L 89.205 122.161 C 73.832 153.373 67.21 163.297 63.938 160.024 Z M 40.075 154.8 C 29.252 150.086 27.99 130.36 38.117 124.186 C 46.692 118.957 56.949 126.424 57.171 138.058 C 57.335 146.623 53.903 152.72 47.571 155.112 C 44.349 156.329 43.506 156.294 40.075 154.8 Z M 48.768 110.879 C 45.675 109.654 43.306 106.551 43.306 103.726 C 43.306 98.454 49.538 95.108 55.623 97.113 C 64.466 100.027 62.75 109.836 53.187 111.036 C 51.507 111.247 49.518 111.176 48.768 110.879 Z"
        fill="#000000"
        stroke-width="12"/>
</svg>
